PortableApps/LibreOfficePortable/App/libreoffice/help/media/icon-themes/cmd/lc_mailmergeemaildocuments.svg

<svg viewBox="0 0 24 24" xmlns="http://www.w3.org/2000/svg"><path d="m3 3v16h1v-1-4-9c0-.554.446-1 1-1h10v-1z" fill="#fff"/><path d="m8 10h14v8h-14z" fill="#fff"/><g fill="#4d82b8"><path d="m18 11h3v3h-3z"/><path d="m9 14h7v1h-7z"/><path d="m10 16h5v1h-5z"/></g><path d="m5 5v16h12v-1h-10c-.554 0-1-.446-1-1v-10c0-.554.446-1 1-1h10v-3z" fill="#fff"/><path d="m3 2c-.554 0-1 .446-1 1v16c0 .554.446 1 1 1h1v1c0 .554.446 1 1 1h12c.554 0 1-.446 1-1v-1h-1v1h-12v-12-4h12v3h1v-3c0-.554-.446-1-1-1h-1v-1c0-.554-.446-1-1-1zm0 1h12v1h-10c-.554 0-1 .446-1 1v14h-1z" fill="#808080"/><path d="m8 9c-.554 0-1 .446-1 1v8c0 .554.446 1 1 1h14c.554 0 1-.446 1-1v-8c0-.554-.446-1-1-1zm0 1h14v8h-14z" fill="#4d82b8"/></svg>

<svg viewBox="0 0 24 24" xmlns="http://www.w3.org/2000/svg">
  <path
     style="fill:#ffffff"
     d="M 3 3 L 3 19 L 4 19 L 4 18 L 4 14 L 4 5 C 4 4.446 4.446 4 5 4 L 15 4 L 15 3 L 3 3 z "
     />
  <path
     style="fill:#ffffff"
     d="m 8,10 h 14 v 8 H 8 Z"
     />
  <g
     style="fill:#4d82b8"
     >
    <path
       d="m 18,11 h 3 v 3 h -3 z"
       />
    <path
       d="m 9,14 h 7 v 1 H 9 Z"
       />
    <path
       d="m 10,16 h 5 v 1 h -5 z"
       />
  </g>
  <path
     style="fill:#ffffff"
     d="M 5 5 L 5 21 L 17 21 L 17 20 L 7 20 C 6.446 20 6 19.554 6 19 L 6 9 C 6 8.446 6.446 8 7 8 L 17 8 L 17 5 L 5 5 z "
     />
  <path
     style="fill:#808080"
     d="M 3 2 C 2.446 2 2 2.446 2 3 L 2 19 C 2 19.554 2.446 20 3 20 L 4 20 L 4 21 C 4 21.554 4.446 22 5 22 L 17 22 C 17.554 22 18 21.554 18 21 L 18 20 L 17 20 L 17 21 L 5 21 L 5 9 L 5 5 L 17 5 L 17 8 L 18 8 L 18 5 C 18 4.446 17.554 4 17 4 L 16 4 L 16 3 C 16 2.446 15.554 2 15 2 L 3 2 z M 3 3 L 15 3 L 15 4 L 5 4 C 4.446 4 4 4.446 4 5 L 4 19 L 3 19 L 3 3 z "
     />
  <path
     style="fill:#4d82b8"
     d="M 8,9 C 7.446,9 7,9.446 7,10 v 8 c 0,0.554 0.446,1 1,1 h 14 c 0.554,0 1,-0.446 1,-1 V 10 C 23,9.446 22.554,9 22,9 Z m 0,1 h 14 v 8 H 8 Z"
     />
</svg>
